X: 20262
T: The BONNIE GREY EYED MORN
O: Very old.
Q: "Moderate."
%R: air, reel
B: W. Hamilton "Universal Tune-Book" Vol. 2 Glasgow 1846 p.26 #2
S: http://s3-eu-west-1.amazonaws.com/itma.dl.printmaterial/book_pdfs/hamiltonvol2web.pdf
Z: 2016 John Chambers <jc:trillian.mit.edu>
M: C
L: 1/8
K: Bb
%%slurgraces yes
%%graceslurs yes
% - - - - - - - - - - - - - - - - - - - - - - - - -
F |\
BABc {Bc}d2cB | (de)(fg) f3g |\
f>gfd (ed)(cB) | (AB)(cd) c3d |\
(ed)(cB) A3A | BAGF {F}E3C |\
FAGB (Acdc) | (BA)(G>F) F3 |]
c |\
cAcA F3f | (fd)fd B3d |\
(eG)cA G2^Fd | (cB)A>G G2zD |\
(GA)BG e3d | (dG)cB {B}A3F |\
(Bd)ce (df)(gf) | (ed)c>B B3 |]
% - - - - - - - - - - - - - - - - - - - - - - - - -

%%sep 1 1 500
%%sep 1 1 500

